images/3232894.svg

<?xml version="1.0" encoding="UTF-8"?>
<svg xmlns="http://www.w3.org/2000/svg" xmlns:xlink="http://www.w3.org/1999/xlink" width="300pt" height="300pt" viewBox="0 0 300 300" version="1.1">
<defs>
<g>
<symbol overflow="visible" id="glyph0-0">
<path style="stroke:none;" d="M 0.59375 2.125 L 0.59375 -8.46875 L 6.59375 -8.46875 L 6.59375 2.125 Z M 1.265625 1.453125 L 5.9375 1.453125 L 5.9375 -7.78125 L 1.265625 -7.78125 Z M 1.265625 1.453125 "/>
</symbol>
<symbol overflow="visible" id="glyph0-1">
<path style="stroke:none;" d="M 4.734375 -7.953125 C 3.867188 -7.953125 3.179688 -7.628906 2.671875 -6.984375 C 2.171875 -6.347656 1.921875 -5.472656 1.921875 -4.359375 C 1.921875 -3.265625 2.171875 -2.394531 2.671875 -1.75 C 3.179688 -1.113281 3.867188 -0.796875 4.734375 -0.796875 C 5.585938 -0.796875 6.265625 -1.113281 6.765625 -1.75 C 7.273438 -2.394531 7.53125 -3.265625 7.53125 -4.359375 C 7.53125 -5.472656 7.273438 -6.347656 6.765625 -6.984375 C 6.265625 -7.628906 5.585938 -7.953125 4.734375 -7.953125 Z M 4.734375 -8.90625 C 5.953125 -8.90625 6.925781 -8.492188 7.65625 -7.671875 C 8.394531 -6.847656 8.765625 -5.742188 8.765625 -4.359375 C 8.765625 -2.984375 8.394531 -1.882812 7.65625 -1.0625 C 6.925781 -0.238281 5.953125 0.171875 4.734375 0.171875 C 3.503906 0.171875 2.519531 -0.238281 1.78125 -1.0625 C 1.039062 -1.882812 0.671875 -2.984375 0.671875 -4.359375 C 0.671875 -5.742188 1.039062 -6.847656 1.78125 -7.671875 C 2.519531 -8.492188 3.503906 -8.90625 4.734375 -8.90625 Z M 4.734375 -8.90625 "/>
</symbol>
<symbol overflow="visible" id="glyph0-2">
<path style="stroke:none;" d="M 1.171875 -8.75 L 2.765625 -8.75 L 6.65625 -1.4375 L 6.65625 -8.75 L 7.796875 -8.75 L 7.796875 0 L 6.203125 0 L 2.328125 -7.3125 L 2.328125 0 L 1.171875 0 Z M 1.171875 -8.75 "/>
</symbol>
<symbol overflow="visible" id="glyph0-3">
<path style="stroke:none;" d="M 1.171875 -8.75 L 2.359375 -8.75 L 2.359375 -5.15625 L 6.65625 -5.15625 L 6.65625 -8.75 L 7.84375 -8.75 L 7.84375 0 L 6.65625 0 L 6.65625 -4.171875 L 2.359375 -4.171875 L 2.359375 0 L 1.171875 0 Z M 1.171875 -8.75 "/>
</symbol>
</g>
</defs>
<g id="surface46161">
<rect x="0" y="0" width="300" height="300" style="fill:rgb(100%,100%,100%);fill-opacity:1;stroke:none;"/>
<path style="fill:none;stroke-width:1.2;stroke-linecap:butt;stroke-linejoin:miter;stroke:rgb(0%,0%,0%);stroke-opacity:1;stroke-miterlimit:10;" d="M 75.398438 231.761719 L 83.1875 219.539062 "/>
<path style="fill:none;stroke-width:1.2;stroke-linecap:butt;stroke-linejoin:miter;stroke:rgb(100%,0%,0%);stroke-opacity:1;stroke-miterlimit:10;" d="M 83.1875 219.539062 L 90.976562 207.3125 "/>
<path style="fill:none;stroke-width:1.2;stroke-linecap:butt;stroke-linejoin:miter;stroke:rgb(100%,0%,0%);stroke-opacity:1;stroke-miterlimit:10;" d="M 90.976562 207.3125 L 84.285156 194.457031 "/>
<path style="fill:none;stroke-width:1.2;stroke-linecap:butt;stroke-linejoin:miter;stroke:rgb(0%,0%,0%);stroke-opacity:1;stroke-miterlimit:10;" d="M 84.285156 194.457031 L 77.59375 181.597656 "/>
<path style=" stroke:none;fill-rule:nonzero;fill:rgb(100%,100%,100%);fill-opacity:1;" d="M 85.976562 200.3125 L 95.976562 200.3125 L 95.976562 214.3125 L 85.976562 214.3125 Z M 85.976562 200.3125 "/>
<g style="fill:rgb(100%,0%,0%);fill-opacity:1;">
  <use xlink:href="#glyph0-1" x="85.976562" y="211.451172"/>
</g>
<path style="fill:none;stroke-width:1.2;stroke-linecap:butt;stroke-linejoin:miter;stroke:rgb(0%,0%,0%);stroke-opacity:1;stroke-miterlimit:10;" d="M 77.59375 181.597656 L 48.632812 180.328125 "/>
<path style="fill:none;stroke-width:1.2;stroke-linecap:butt;stroke-linejoin:miter;stroke:rgb(0%,0%,0%);stroke-opacity:1;stroke-miterlimit:10;" d="M 74.996094 174.65625 L 51.828125 173.640625 "/>
<path style="fill:none;stroke-width:1.2;stroke-linecap:butt;stroke-linejoin:miter;stroke:rgb(0%,0%,0%);stroke-opacity:1;stroke-miterlimit:10;" d="M 93.175781 157.148438 L 77.59375 181.597656 "/>
<path style="fill:none;stroke-width:1.2;stroke-linecap:butt;stroke-linejoin:miter;stroke:rgb(0%,0%,0%);stroke-opacity:1;stroke-miterlimit:10;" d="M 48.632812 180.328125 L 35.25 154.613281 "/>
<path style="fill:none;stroke-width:1.2;stroke-linecap:butt;stroke-linejoin:miter;stroke:rgb(0%,0%,0%);stroke-opacity:1;stroke-miterlimit:10;" d="M 35.25 154.613281 L 50.828125 130.164062 "/>
<path style="fill:none;stroke-width:1.2;stroke-linecap:butt;stroke-linejoin:miter;stroke:rgb(0%,0%,0%);stroke-opacity:1;stroke-miterlimit:10;" d="M 42.558594 155.832031 L 55.023438 136.273438 "/>
<path style="fill:none;stroke-width:1.2;stroke-linecap:butt;stroke-linejoin:miter;stroke:rgb(0%,0%,0%);stroke-opacity:1;stroke-miterlimit:10;" d="M 50.828125 130.164062 L 79.792969 131.433594 "/>
<path style="fill:none;stroke-width:1.2;stroke-linecap:butt;stroke-linejoin:miter;stroke:rgb(0%,0%,0%);stroke-opacity:1;stroke-miterlimit:10;" d="M 79.792969 131.433594 L 93.175781 157.148438 "/>
<path style="fill:none;stroke-width:1.2;stroke-linecap:butt;stroke-linejoin:miter;stroke:rgb(0%,0%,0%);stroke-opacity:1;stroke-miterlimit:10;" d="M 75.078125 137.152344 L 85.785156 157.726562 "/>
<path style="fill:none;stroke-width:1.2;stroke-linecap:butt;stroke-linejoin:miter;stroke:rgb(0%,0%,0%);stroke-opacity:1;stroke-miterlimit:10;" d="M 93.175781 157.148438 L 122.136719 158.417969 "/>
<path style="fill:none;stroke-width:1.2;stroke-linecap:butt;stroke-linejoin:miter;stroke:rgb(0%,0%,0%);stroke-opacity:1;stroke-miterlimit:10;" d="M 122.136719 158.417969 L 129.925781 146.195312 "/>
<path style="fill:none;stroke-width:1.2;stroke-linecap:butt;stroke-linejoin:miter;stroke:rgb(0%,0%,100%);stroke-opacity:1;stroke-miterlimit:10;" d="M 129.925781 146.195312 L 137.714844 133.96875 "/>
<path style="fill:none;stroke-width:1.2;stroke-linecap:butt;stroke-linejoin:miter;stroke:rgb(0%,0%,100%);stroke-opacity:1;stroke-miterlimit:10;" d="M 137.714844 133.96875 L 152.195312 134.605469 "/>
<path style="fill:none;stroke-width:1.2;stroke-linecap:butt;stroke-linejoin:miter;stroke:rgb(0%,0%,0%);stroke-opacity:1;stroke-miterlimit:10;" d="M 152.195312 134.605469 L 166.679688 135.238281 "/>
<path style=" stroke:none;fill-rule:nonzero;fill:rgb(100%,100%,100%);fill-opacity:1;" d="M 128.714844 126.96875 L 146.714844 126.96875 L 146.714844 140.96875 L 128.714844 140.96875 Z M 128.714844 126.96875 "/>
<g style="fill:rgb(0%,0%,100%);fill-opacity:1;">
  <use xlink:href="#glyph0-2" x="128.714844" y="138.107422"/>
  <use xlink:href="#glyph0-3" x="137.691406" y="138.107422"/>
</g>
<path style="fill:none;stroke-width:1.2;stroke-linecap:butt;stroke-linejoin:miter;stroke:rgb(0%,0%,0%);stroke-opacity:1;stroke-miterlimit:10;" d="M 166.679688 135.238281 L 173.371094 148.097656 "/>
<path style="fill:none;stroke-width:1.2;stroke-linecap:butt;stroke-linejoin:miter;stroke:rgb(0%,0%,100%);stroke-opacity:1;stroke-miterlimit:10;" d="M 173.371094 148.097656 L 180.0625 160.957031 "/>
<path style="fill:none;stroke-width:1.2;stroke-linecap:butt;stroke-linejoin:miter;stroke:rgb(0%,0%,0%);stroke-opacity:1;stroke-miterlimit:10;" d="M 174.066406 134.660156 L 179.421875 144.949219 "/>
<path style="fill:none;stroke-width:1.2;stroke-linecap:butt;stroke-linejoin:miter;stroke:rgb(0%,0%,100%);stroke-opacity:1;stroke-miterlimit:10;" d="M 179.421875 144.949219 L 184.773438 155.234375 "/>
<path style="fill:none;stroke-width:1.2;stroke-linecap:butt;stroke-linejoin:miter;stroke:rgb(0%,0%,0%);stroke-opacity:1;stroke-miterlimit:10;" d="M 182.257812 110.792969 L 166.679688 135.238281 "/>
<path style="fill:none;stroke-width:1.2;stroke-linecap:butt;stroke-linejoin:miter;stroke:rgb(0%,0%,100%);stroke-opacity:1;stroke-miterlimit:10;" d="M 180.0625 160.957031 L 194.542969 161.589844 "/>
<path style="fill:none;stroke-width:1.2;stroke-linecap:butt;stroke-linejoin:miter;stroke:rgb(0%,0%,0%);stroke-opacity:1;stroke-miterlimit:10;" d="M 194.542969 161.589844 L 209.023438 162.222656 "/>
<path style=" stroke:none;fill-rule:nonzero;fill:rgb(100%,100%,100%);fill-opacity:1;" d="M 176.0625 153.957031 L 185.0625 153.957031 L 185.0625 167.957031 L 176.0625 167.957031 Z M 176.0625 153.957031 "/>
<g style="fill:rgb(0%,0%,100%);fill-opacity:1;">
  <use xlink:href="#glyph0-2" x="176.0625" y="165.095703"/>
</g>
<path style="fill:none;stroke-width:1.2;stroke-linecap:butt;stroke-linejoin:miter;stroke:rgb(0%,0%,0%);stroke-opacity:1;stroke-miterlimit:10;" d="M 209.023438 162.222656 L 216.8125 150 "/>
<path style="fill:none;stroke-width:1.2;stroke-linecap:butt;stroke-linejoin:miter;stroke:rgb(0%,0%,100%);stroke-opacity:1;stroke-miterlimit:10;" d="M 216.8125 150 L 224.601562 137.777344 "/>
<path style="fill:none;stroke-width:1.2;stroke-linecap:butt;stroke-linejoin:miter;stroke:rgb(0%,0%,0%);stroke-opacity:1;stroke-miterlimit:10;" d="M 204.828125 156.113281 L 211.058594 146.335938 "/>
<path style="fill:none;stroke-width:1.2;stroke-linecap:butt;stroke-linejoin:miter;stroke:rgb(0%,0%,100%);stroke-opacity:1;stroke-miterlimit:10;" d="M 211.058594 146.335938 L 217.292969 136.554688 "/>
<path style="fill:none;stroke-width:1.2;stroke-linecap:butt;stroke-linejoin:miter;stroke:rgb(0%,0%,0%);stroke-opacity:1;stroke-miterlimit:10;" d="M 209.023438 162.222656 L 222.40625 187.941406 "/>
<path style="fill:none;stroke-width:1.2;stroke-linecap:butt;stroke-linejoin:miter;stroke:rgb(0%,0%,100%);stroke-opacity:1;stroke-miterlimit:10;" d="M 224.601562 137.777344 L 217.910156 124.917969 "/>
<path style="fill:none;stroke-width:1.2;stroke-linecap:butt;stroke-linejoin:miter;stroke:rgb(0%,0%,0%);stroke-opacity:1;stroke-miterlimit:10;" d="M 217.910156 124.917969 L 211.21875 112.058594 "/>
<path style=" stroke:none;fill-rule:nonzero;fill:rgb(100%,100%,100%);fill-opacity:1;" d="M 220.601562 130.777344 L 229.601562 130.777344 L 229.601562 144.777344 L 220.601562 144.777344 Z M 220.601562 130.777344 "/>
<g style="fill:rgb(0%,0%,100%);fill-opacity:1;">
  <use xlink:href="#glyph0-2" x="220.601562" y="141.916016"/>
</g>
<path style="fill:none;stroke-width:1.2;stroke-linecap:butt;stroke-linejoin:miter;stroke:rgb(0%,0%,0%);stroke-opacity:1;stroke-miterlimit:10;" d="M 211.21875 112.058594 L 226.800781 87.613281 "/>
<path style="fill:none;stroke-width:1.2;stroke-linecap:butt;stroke-linejoin:miter;stroke:rgb(0%,0%,0%);stroke-opacity:1;stroke-miterlimit:10;" d="M 207.027344 105.949219 L 219.488281 86.390625 "/>
<path style="fill:none;stroke-width:1.2;stroke-linecap:butt;stroke-linejoin:miter;stroke:rgb(0%,0%,0%);stroke-opacity:1;stroke-miterlimit:10;" d="M 182.257812 110.792969 L 211.21875 112.058594 "/>
<path style="fill:none;stroke-width:1.2;stroke-linecap:butt;stroke-linejoin:miter;stroke:rgb(0%,0%,0%);stroke-opacity:1;stroke-miterlimit:10;" d="M 226.800781 87.613281 L 213.417969 61.894531 "/>
<path style="fill:none;stroke-width:1.2;stroke-linecap:butt;stroke-linejoin:miter;stroke:rgb(0%,0%,0%);stroke-opacity:1;stroke-miterlimit:10;" d="M 213.417969 61.894531 L 184.457031 60.628906 "/>
<path style="fill:none;stroke-width:1.2;stroke-linecap:butt;stroke-linejoin:miter;stroke:rgb(0%,0%,0%);stroke-opacity:1;stroke-miterlimit:10;" d="M 210.222656 68.582031 L 187.054688 67.570312 "/>
<path style="fill:none;stroke-width:1.2;stroke-linecap:butt;stroke-linejoin:miter;stroke:rgb(0%,0%,0%);stroke-opacity:1;stroke-miterlimit:10;" d="M 184.457031 60.628906 L 168.875 85.074219 "/>
<path style="fill:none;stroke-width:1.2;stroke-linecap:butt;stroke-linejoin:miter;stroke:rgb(0%,0%,0%);stroke-opacity:1;stroke-miterlimit:10;" d="M 168.875 85.074219 L 182.257812 110.792969 "/>
<path style="fill:none;stroke-width:1.2;stroke-linecap:butt;stroke-linejoin:miter;stroke:rgb(0%,0%,0%);stroke-opacity:1;stroke-miterlimit:10;" d="M 176.265625 84.496094 L 186.96875 105.070312 "/>
<path style="fill:none;stroke-width:1.2;stroke-linecap:butt;stroke-linejoin:miter;stroke:rgb(0%,0%,0%);stroke-opacity:1;stroke-miterlimit:10;" d="M 222.40625 187.941406 L 206.824219 212.386719 "/>
<path style="fill:none;stroke-width:1.2;stroke-linecap:butt;stroke-linejoin:miter;stroke:rgb(0%,0%,0%);stroke-opacity:1;stroke-miterlimit:10;" d="M 226.601562 194.050781 L 214.136719 213.609375 "/>
<path style="fill:none;stroke-width:1.2;stroke-linecap:butt;stroke-linejoin:miter;stroke:rgb(0%,0%,0%);stroke-opacity:1;stroke-miterlimit:10;" d="M 251.367188 189.207031 L 222.40625 187.941406 "/>
<path style="fill:none;stroke-width:1.2;stroke-linecap:butt;stroke-linejoin:miter;stroke:rgb(0%,0%,0%);stroke-opacity:1;stroke-miterlimit:10;" d="M 206.824219 212.386719 L 213.515625 225.246094 "/>
<path style="fill:none;stroke-width:1.2;stroke-linecap:butt;stroke-linejoin:miter;stroke:rgb(0%,0%,100%);stroke-opacity:1;stroke-miterlimit:10;" d="M 213.515625 225.246094 L 220.207031 238.105469 "/>
<path style="fill:none;stroke-width:1.2;stroke-linecap:butt;stroke-linejoin:miter;stroke:rgb(0%,0%,100%);stroke-opacity:1;stroke-miterlimit:10;" d="M 220.207031 238.105469 L 234.6875 238.738281 "/>
<path style="fill:none;stroke-width:1.2;stroke-linecap:butt;stroke-linejoin:miter;stroke:rgb(0%,0%,0%);stroke-opacity:1;stroke-miterlimit:10;" d="M 234.6875 238.738281 L 249.171875 239.371094 "/>
<path style="fill:none;stroke-width:1.2;stroke-linecap:butt;stroke-linejoin:miter;stroke:rgb(0%,0%,100%);stroke-opacity:1;stroke-miterlimit:10;" d="M 223.402344 231.417969 L 234.988281 231.921875 "/>
<path style="fill:none;stroke-width:1.2;stroke-linecap:butt;stroke-linejoin:miter;stroke:rgb(0%,0%,0%);stroke-opacity:1;stroke-miterlimit:10;" d="M 234.988281 231.921875 L 246.574219 232.429688 "/>
<path style=" stroke:none;fill-rule:nonzero;fill:rgb(100%,100%,100%);fill-opacity:1;" d="M 216.207031 231.105469 L 225.207031 231.105469 L 225.207031 245.105469 L 216.207031 245.105469 Z M 216.207031 231.105469 "/>
<g style="fill:rgb(0%,0%,100%);fill-opacity:1;">
  <use xlink:href="#glyph0-2" x="216.207031" y="242.244141"/>
</g>
<path style="fill:none;stroke-width:1.2;stroke-linecap:butt;stroke-linejoin:miter;stroke:rgb(0%,0%,0%);stroke-opacity:1;stroke-miterlimit:10;" d="M 249.171875 239.371094 L 264.75 214.925781 "/>
<path style="fill:none;stroke-width:1.2;stroke-linecap:butt;stroke-linejoin:miter;stroke:rgb(0%,0%,0%);stroke-opacity:1;stroke-miterlimit:10;" d="M 264.75 214.925781 L 251.367188 189.207031 "/>
<path style="fill:none;stroke-width:1.2;stroke-linecap:butt;stroke-linejoin:miter;stroke:rgb(0%,0%,0%);stroke-opacity:1;stroke-miterlimit:10;" d="M 257.359375 215.503906 L 246.65625 194.929688 "/>
</g>
</svg>

<svg xmlns="http://www.w3.org/2000/svg" xmlns:xlink="http://www.w3.org/1999/xlink" width="300pt" height="300pt" viewBox="0 0 300 300"><defs><symbol overflow="visible"><path d="M.594 2.125V-8.47h6V2.126zm.672-.672h4.671V-7.78h-4.67zm0 0"/></symbol><symbol overflow="visible" id="a"><path d="M4.734-7.953c-.867 0-1.554.324-2.062.97-.5.635-.75 1.51-.75 2.624 0 1.094.25 1.965.75 2.61.508.637 1.195.953 2.062.953.852 0 1.532-.316 2.032-.953.507-.645.765-1.516.765-2.61 0-1.113-.257-1.988-.764-2.624-.5-.645-1.18-.97-2.032-.97zm0-.953c1.22 0 2.192.414 2.922 1.234.74.824 1.11 1.93 1.11 3.313 0 1.376-.37 2.477-1.11 3.298C6.926-.24 5.953.17 4.734.17c-1.23 0-2.214-.41-2.953-1.234C1.04-1.882.673-2.984.673-4.36c0-1.382.367-2.488 1.11-3.312.738-.82 1.722-1.234 2.952-1.234zm0 0"/></symbol><symbol overflow="visible" id="b"><path d="M1.172-8.75h1.594l3.89 7.313V-8.75h1.14V0H6.204L2.328-7.313V0H1.172zm0 0"/></symbol><symbol overflow="visible" id="c"><path d="M1.172-8.75H2.36v3.594h4.296V-8.75h1.188V0H6.656v-4.172H2.36V0H1.17zm0 0"/></symbol></defs><g><path fill="#fff" d="M0 0h300v300H0z"/><path d="M75.398 231.762l7.79-12.223" stroke-width="1.2" stroke="#000" stroke-miterlimit="10" fill="none"/><path d="M83.188 219.54l7.79-12.227M90.977 207.313l-6.692-12.856" stroke-width="1.2" stroke="#f00" stroke-miterlimit="10" fill="none"/><path d="M84.285 194.457l-6.69-12.86" stroke-width="1.2" stroke="#000" stroke-miterlimit="10" fill="none"/><path d="M85.977 200.313h10v14h-10zm0 0" fill="#fff"/><use xlink:href="#a" x="85.977" y="211.451" fill="#f00"/><path d="M77.594 181.598l-28.96-1.27M74.996 174.656l-23.168-1.015M93.176 157.148l-15.582 24.45M48.633 180.328L35.25 154.613M35.25 154.613l15.578-24.45M42.56 155.832l12.463-19.56M50.828 130.164l28.965 1.27M79.793 131.434l13.383 25.714M75.078 137.152l10.707 20.575M93.176 157.148l28.96 1.27M122.137 158.418l7.79-12.223" stroke-width="1.2" stroke="#000" stroke-miterlimit="10" fill="none"/><path d="M129.926 146.195l7.79-12.226M137.715 133.97l14.48.635" stroke-width="1.2" stroke="#00f" stroke-miterlimit="10" fill="none"/><path d="M152.195 134.605l14.485.633" stroke-width="1.2" stroke="#000" stroke-miterlimit="10" fill="none"/><path d="M128.715 126.97h18v14h-18zm0 0" fill="#fff"/><g fill="#00f"><use xlink:href="#b" x="128.715" y="138.107"/><use xlink:href="#c" x="137.691" y="138.107"/></g><path d="M166.68 135.238l6.69 12.86" stroke-width="1.2" stroke="#000" stroke-miterlimit="10" fill="none"/><path d="M173.37 148.098l6.692 12.86" stroke-width="1.2" stroke="#00f" stroke-miterlimit="10" fill="none"/><path d="M174.066 134.66l5.356 10.29" stroke-width="1.2" stroke="#000" stroke-miterlimit="10" fill="none"/><path d="M179.422 144.95l5.35 10.284" stroke-width="1.2" stroke="#00f" stroke-miterlimit="10" fill="none"/><path d="M182.258 110.793l-15.578 24.445" stroke-width="1.2" stroke="#000" stroke-miterlimit="10" fill="none"/><path d="M180.063 160.957l14.48.633" stroke-width="1.2" stroke="#00f" stroke-miterlimit="10" fill="none"/><path d="M194.543 161.59l14.48.633" stroke-width="1.2" stroke="#000" stroke-miterlimit="10" fill="none"/><path d="M176.063 153.957h9v14h-9zm0 0" fill="#fff"/><use xlink:href="#b" x="176.063" y="165.096" fill="#00f"/><path d="M209.023 162.223l7.79-12.223" stroke-width="1.2" stroke="#000" stroke-miterlimit="10" fill="none"/><path d="M216.813 150l7.79-12.223" stroke-width="1.2" stroke="#00f" stroke-miterlimit="10" fill="none"/><path d="M204.828 156.113l6.23-9.777" stroke-width="1.2" stroke="#000" stroke-miterlimit="10" fill="none"/><path d="M211.06 146.336l6.233-9.78" stroke-width="1.2" stroke="#00f" stroke-miterlimit="10" fill="none"/><path d="M209.023 162.223l13.383 25.718" stroke-width="1.2" stroke="#000" stroke-miterlimit="10" fill="none"/><path d="M224.602 137.777l-6.692-12.86" stroke-width="1.2" stroke="#00f" stroke-miterlimit="10" fill="none"/><path d="M217.91 124.918l-6.69-12.86" stroke-width="1.2" stroke="#000" stroke-miterlimit="10" fill="none"/><path d="M220.602 130.777h9v14h-9zm0 0" fill="#fff"/><use xlink:href="#b" x="220.602" y="141.916" fill="#00f"/><path d="M211.22 112.06l15.58-24.447M207.027 105.95l12.46-19.56M182.258 110.793l28.96 1.266M226.8 87.613L213.42 61.895M213.418 61.895l-28.96-1.266M210.223 68.582l-23.168-1.012M184.457 60.63l-15.582 24.444M168.875 85.074l13.383 25.72M176.266 84.496l10.703 20.574M222.406 187.94l-15.582 24.447M226.602 194.05l-12.465 19.56M251.367 189.207l-28.96-1.266M206.824 212.387l6.692 12.86" stroke-width="1.2" stroke="#000" stroke-miterlimit="10" fill="none"/><path d="M213.516 225.246l6.69 12.86M220.207 238.105l14.48.633" stroke-width="1.2" stroke="#00f" stroke-miterlimit="10" fill="none"/><path d="M234.688 238.738l14.484.633" stroke-width="1.2" stroke="#000" stroke-miterlimit="10" fill="none"/><path d="M223.402 231.418l11.586.504" stroke-width="1.2" stroke="#00f" stroke-miterlimit="10" fill="none"/><path d="M234.988 231.922l11.586.508" stroke-width="1.2" stroke="#000" stroke-miterlimit="10" fill="none"/><path d="M216.207 231.105h9v14h-9zm0 0" fill="#fff"/><use xlink:href="#b" x="216.207" y="242.244" fill="#00f"/><path d="M249.172 239.37l15.578-24.444M264.75 214.926l-13.383-25.72M257.36 215.504l-10.704-20.574" stroke-width="1.2" stroke="#000" stroke-miterlimit="10" fill="none"/></g></svg>
